!!!OTL: Die dienende Schwester Es wohnt ein Pfalzgraf ueberm Rhein,
!!!ARE: Europa, Mitteleuropa, Luxemburg
!!!YOR: 4, S. 112
!!    1929 gedruckt
!!!SCT: Q0075c
!!!YEM: Copyright 1995, estate of Helmut Schaffrath.
**kern
*ICvox
*Ivox
*M2/4
*k[b-]
*F:
{16cc
8.cc
16cc
=1
8.cc
16cc
8.dd
16dd
=2
8.g}
{16a
8.b-
16dd
=3
8.dd
16dd
8.cc
16cc
=4
8.a}
{16cc
8.cc
16ff
=5
4ff
8.ee
16dd
=6
4ee
4dd
=7
4cc
4r}
==
!!!AGN: Ballade, Adelige als Dienstmagd, Tod; Kinder - Spiel, Tanz
!! Zweistimmig notiert, Oberstimme kodiert.
!!!ONB: ESAC (Essen Associative Code) Database: BALLADE
!!!AMT: simple duple
!!!AIN: vox
!!!EED: Helmut Schaffrath
!!!EEV: 1.0
*-
